!!!OTL: 84g. Die Koenigskinder.
!!!ODT: 1890
!!!ARE: Europa, Mitteleuropa, Deutschland, Lahn - Gegend, Kreis Limburg
!!!SCT: E0084E
!!!TXL: @@DE
!!!YEM: Copyright 1995, estate of Helmut Schaffrath.
**kern	**text
*ICvox	*
*M6/8	*
*k[f#]	*
*G:	*
!LO:TX:a:t=Langſam.	!
!LO:TX:a:t=Aus der Lahngegend (Kr. Limburg). 1890.	!
{8d	Es
=1	=1
8b/	wa-
8g	-ren
8g	ʒwei
8gL	Kö-
8aJ	.
8b	-nigs-
=2	=2
8b/	-kin-
8a	-der
8r	.
4r}	.
{8a	die
=3	=3
[8a	hat-
8a]	-ten
8a	ein
8dd	an-
8dd	-der
8cc	ſo
=4	=4
4.b	lieb.
4r}	.
{16gL	Sie
16bJ	.
=5	=5
8dd	konn-
8dd	-ten
8dd	bei-
8dd	-ſam-
8dd	-men
8gg	nicht
=6	=6
[4.ee	kom-
8ee]	.
8dd}	-men,
{8cc	das
=7	=7
8b	Waſ-
8b	-ſer
8b	war
4dd	viel
8cc	ʒu
=8	=8
4.b	tief.
4r}	.
{16gL	Sie
16bJ	.
=9	=9
8dd	konn-
8dd	-ten
8dd	bei-
8dd	-ſam-
8dd	-men
8gg	nicht
=10	=10
[4.ee	kom-
8ee]	.
8dd}	-men,
{8cc	das
=11	=11
8b	Waſ-
8b	-ſer
8b	war
4dd	viel
8cc	ʒu
=12	=12
4.b	tief.
4r}	.
==	==
!!!AGN: erzaehlendes Volks - Lied, Sage, Liebe, Leid, Tod, Ballade ?
!!!ONB: ESAC (Essen Associative Code) Database: ERK1
!!!AMT: compound duple
!!!AIN: vox
!!!EED: Helmut Schaffrath
!!!EEV: 1.0
!!!GTL: Liebesgeschichten mit tragischem Schluss
!!!URL-scan: https://rosdok.uni-rostock.de/mcrviewer/recordIdentifier/rosdok_ppn745146120/iview2/phys_0364.iview2?x=-209.41713865975294&y=1453.4807578600012&scale=0.554360769283424&rotation=0&layout=singlePageLayout
!!!ENC: Anna Maria Matuszewska
!!!EEV: 2024/11/26
*-	*-
